src/assets/bg_claim_btn.svg

<svg width="145" height="70" viewBox="0 0 145 70" fill="none" xmlns="http://www.w3.org/2000/svg">
<path d="M0.859183 9.85716C0.937277 4.39057 5.39102 0 10.8582 0H134.856C140.435 0 144.935 4.5647 144.855 10.1428L144.141 60.1428C144.063 65.6094 139.609 70 134.142 70H10.1439C4.56516 70 0.0652099 65.4353 0.144898 59.8572L0.859183 9.85716Z" fill="url(#paint0_linear_2001_10448)"/>
<path d="M3.35893 9.89287C3.4175 5.79293 6.75781 2.5 10.8582 2.5H134.856C139.04 2.5 142.415 5.92352 142.355 10.1071L141.641 60.1071C141.583 64.2071 138.242 67.5 134.142 67.5H10.1439C5.95984 67.5 2.58488 64.0765 2.64464 59.8929L3.35893 9.89287Z" stroke="url(#paint1_linear_2001_10448)" stroke-width="5"/>
<path d="M6.34485 10.8786C6.41123 6.23199 10.1969 2.5 14.844 2.5H132.856C137.04 2.5 140.415 5.92352 140.355 10.1071L139.641 60.1071C139.583 64.2071 136.242 67.5 132.142 67.5H13.1439C8.95984 67.5 5.58488 64.0765 5.64464 59.8929L6.34485 10.8786Z" stroke="url(#paint2_linear_2001_10448)" stroke-width="5"/>
<path d="M6.35893 9.89287C6.4175 5.79293 9.75781 2.5 13.8582 2.5H134.856C139.04 2.5 142.415 5.92352 142.355 10.1071L141.641 60.1071C141.583 64.2071 138.242 67.5 134.142 67.5H13.1439C8.95984 67.5 5.58488 64.0765 5.64464 59.8929L6.35893 9.89287Z" stroke="url(#paint3_linear_2001_10448)" stroke-width="5"/>
<path d="M11.7026 16.7347C11.4383 10.9318 15.9455 5.96012 21.7541 5.91327L135 5C142.286 10.9201 139.939 47.8599 137.659 60.1503C137.34 61.8688 135.811 63 134.063 63H11.2149C10.0299 63 9.10542 61.969 9.22625 60.7902C11.3781 39.7961 12.3442 30.8207 11.7026 16.7347Z" fill="url(#paint4_linear_2001_10448)"/>
<g style="mix-blend-mode:screen" opacity="0.65">
<path d="M12.148 9.13452C12.0738 8.53246 12.5408 8 13.1474 8H134.428C135.351 8 136.156 8.63223 136.361 9.53161C140.444 27.3973 139.416 42.9986 135.704 59.9114C135.306 61.7238 133.689 63 131.833 63H12.3461C11.1152 63 10.1765 61.9018 10.3572 60.6843C12.8502 43.8843 13.8589 23.0272 12.148 9.13452Z" fill="url(#paint5_linear_2001_10448)"/>
</g>
<mask id="mask0_2001_10448" style="mask-type:alpha" maskUnits="userSpaceOnUse" x="10" y="8" width="129" height="55">
<path d="M12.148 9.13452C12.0738 8.53246 12.5408 8 13.1474 8H134.425C135.349 8 136.156 8.63153 136.348 9.53516C139.441 24.0899 138.45 45.5858 135.66 59.8943C135.304 61.721 133.682 63 131.821 63H12.3461C11.1152 63 10.1765 61.9018 10.3572 60.6843C12.8502 43.8843 13.8589 23.0272 12.148 9.13452Z" fill="#009A05"/>
</mask>
<g mask="url(#mask0_2001_10448)">
<g filter="url(#filter0_f_2001_10448)">
<ellipse cx="76" cy="64.5" rx="72" ry="9.5" fill="#01A406"/>
</g>
<g style="mix-blend-mode:screen" opacity="0.47" filter="url(#filter1_f_2001_10448)">
<ellipse cx="74" cy="12.5" rx="62" ry="2.5" fill="#77FF7B"/>
</g>
</g>
<defs>
<filter id="filter0_f_2001_10448" x="-3.5" y="47.5" width="159" height="34" filterUnits="userSpaceOnUse" color-interpolation-filters="sRGB">
<feFlood flood-opacity="0" result="BackgroundImageFix"/>
<feBlend mode="normal" in="SourceGraphic" in2="BackgroundImageFix" result="shape"/>
<feGaussianBlur stdDeviation="3.75" result="effect1_foregroundBlur_2001_10448"/>
</filter>
<filter id="filter1_f_2001_10448" x="4.5" y="2.5" width="139" height="20" filterUnits="userSpaceOnUse" color-interpolation-filters="sRGB">
<feFlood flood-opacity="0" result="BackgroundImageFix"/>
<feBlend mode="normal" in="SourceGraphic" in2="BackgroundImageFix" result="shape"/>
<feGaussianBlur stdDeviation="3.75" result="effect1_foregroundBlur_2001_10448"/>
</filter>
<linearGradient id="paint0_linear_2001_10448" x1="73" y1="-2.02899" x2="73" y2="72.029" gradientUnits="userSpaceOnUse">
<stop stop-color="#004A02"/>
<stop offset="1" stop-color="#008C05"/>
</linearGradient>
<linearGradient id="paint1_linear_2001_10448" x1="73" y1="-2.02899" x2="73" y2="72.029" gradientUnits="userSpaceOnUse">
<stop stop-color="#FBD45A"/>
<stop offset="1" stop-color="#B28E02"/>
</linearGradient>
<linearGradient id="paint2_linear_2001_10448" x1="71" y1="2" x2="71" y2="65.5" gradientUnits="userSpaceOnUse">
<stop offset="0.015" stop-color="#BC8307"/>
<stop offset="1" stop-color="#FFD95E"/>
</linearGradient>
<linearGradient id="paint3_linear_2001_10448" x1="72.5" y1="0" x2="72.5" y2="70" gradientUnits="userSpaceOnUse">
<stop stop-color="#FDC00F"/>
<stop offset="1" stop-color="#E9BA02"/>
</linearGradient>
<linearGradient id="paint4_linear_2001_10448" x1="73" y1="-2.02899" x2="73" y2="72.029" gradientUnits="userSpaceOnUse">
<stop stop-color="#004A02"/>
<stop offset="1" stop-color="#008C05"/>
</linearGradient>
<linearGradient id="paint5_linear_2001_10448" x1="74.0499" y1="2.67742" x2="74.0499" y2="67.4355" gradientUnits="userSpaceOnUse">
<stop stop-color="#009A05"/>
<stop offset="0.485" stop-color="#006403" stop-opacity="0"/>
</linearGradient>
</defs>
</svg>

<svg width="145" height="70" fill="none" xmlns="http://www.w3.org/2000/svg"><path d="M.86 9.857A10 10 0 0 1 10.857 0h123.998c5.579 0 10.079 4.565 9.999 10.143l-.714 50A10 10 0 0 1 134.142 70H10.144c-5.579 0-10.079-4.565-10-10.143l.715-50z" fill="url(#a)"/><path d="M3.359 9.893a7.5 7.5 0 0 1 7.5-7.393h123.997a7.5 7.5 0 0 1 7.499 7.607l-.714 50a7.5 7.5 0 0 1-7.499 7.393H10.144a7.5 7.5 0 0 1-7.5-7.607l.715-50z" stroke="url(#b)" stroke-width="5"/><path d="M6.345 10.879A8.5 8.5 0 0 1 14.844 2.5h118.012a7.5 7.5 0 0 1 7.499 7.607l-.714 50a7.5 7.5 0 0 1-7.499 7.393H13.144a7.5 7.5 0 0 1-7.5-7.607l.7-49.014z" stroke="url(#c)" stroke-width="5"/><path d="M6.359 9.893a7.5 7.5 0 0 1 7.5-7.393h120.997a7.5 7.5 0 0 1 7.499 7.607l-.714 50a7.5 7.5 0 0 1-7.499 7.393H13.144a7.5 7.5 0 0 1-7.5-7.607l.715-50z" stroke="url(#d)" stroke-width="5"/><path d="M11.703 16.735c-.265-5.803 4.242-10.775 10.051-10.822L135 5c7.286 5.92 4.939 42.86 2.659 55.15-.319 1.719-1.848 2.85-3.596 2.85H11.215a2.004 2.004 0 0 1-1.989-2.21c2.152-20.994 3.118-29.97 2.477-44.055z" fill="url(#e)"/><path d="M12.148 9.135a1.009 1.009 0 0 1 1-1.135h121.28c.923 0 1.728.632 1.933 1.532 4.083 17.865 3.055 33.467-.657 50.38-.398 1.812-2.015 3.088-3.871 3.088H12.346a2.016 2.016 0 0 1-1.989-2.316c2.493-16.8 3.502-37.657 1.791-51.55z" fill="url(#f)" style="mix-blend-mode:screen" opacity=".65"/><mask id="g" style="mask-type:alpha" maskUnits="userSpaceOnUse" x="10" y="8" width="129" height="55"><path d="M12.148 9.135a1.009 1.009 0 0 1 1-1.135h121.277c.924 0 1.731.632 1.923 1.535 3.093 14.555 2.102 36.05-.688 50.36-.356 1.826-1.978 3.105-3.839 3.105H12.346a2.016 2.016 0 0 1-1.989-2.316c2.493-16.8 3.502-37.657 1.791-51.55z" fill="#009A05"/></mask><g mask="url(#g)"><g filter="url(#h)"><ellipse cx="76" cy="64.5" rx="72" ry="9.5" fill="#01A406"/></g><g style="mix-blend-mode:screen" opacity=".47" filter="url(#i)"><ellipse cx="74" cy="12.5" rx="62" ry="2.5" fill="#77FF7B"/></g></g><defs><linearGradient id="a" x1="73" y1="-2.029" x2="73" y2="72.029" gradientUnits="userSpaceOnUse"><stop stop-color="#004A02"/><stop offset="1" stop-color="#008C05"/></linearGradient><linearGradient id="b" x1="73" y1="-2.029" x2="73" y2="72.029" gradientUnits="userSpaceOnUse"><stop stop-color="#FBD45A"/><stop offset="1" stop-color="#B28E02"/></linearGradient><linearGradient id="c" x1="71" y1="2" x2="71" y2="65.5" gradientUnits="userSpaceOnUse"><stop offset=".015" stop-color="#BC8307"/><stop offset="1" stop-color="#FFD95E"/></linearGradient><linearGradient id="d" x1="72.5" y1="0" x2="72.5" y2="70" gradientUnits="userSpaceOnUse"><stop stop-color="#FDC00F"/><stop offset="1" stop-color="#E9BA02"/></linearGradient><linearGradient id="e" x1="73" y1="-2.029" x2="73" y2="72.029" gradientUnits="userSpaceOnUse"><stop stop-color="#004A02"/><stop offset="1" stop-color="#008C05"/></linearGradient><linearGradient id="f" x1="74.05" y1="2.677" x2="74.05" y2="67.436" gradientUnits="userSpaceOnUse"><stop stop-color="#009A05"/><stop offset=".485" stop-color="#006403" stop-opacity="0"/></linearGradient><filter id="h" x="-3.5" y="47.5" width="159" height="34" filterUnits="userSpaceOnUse" color-interpolation-filters="sRGB"><feFlood flood-opacity="0" result="BackgroundImageFix"/><feBlend in="SourceGraphic" in2="BackgroundImageFix" result="shape"/><feGaussianBlur stdDeviation="3.75" result="effect1_foregroundBlur_2001_10448"/></filter><filter id="i" x="4.5" y="2.5" width="139" height="20" filterUnits="userSpaceOnUse" color-interpolation-filters="sRGB"><feFlood flood-opacity="0" result="BackgroundImageFix"/><feBlend in="SourceGraphic" in2="BackgroundImageFix" result="shape"/><feGaussianBlur stdDeviation="3.75" result="effect1_foregroundBlur_2001_10448"/></filter></defs></svg>
